svgs/sharp-solid/square-info.svg

<svg xmlns="http://www.w3.org/2000/svg" viewBox="0 0 448 512"><!--! Font Awesome Pro 6.6.0 by @fontawesome - https://fontawesome.com License - https://fontawesome.com/license (Commercial License) Copyright 2024 Fonticons, Inc. --><path d="M448 32L0 32 0 480l448 0 0-448zM184 336l24 0 0-64-24 0-24 0 0-48 24 0 48 0 24 0 0 24 0 88 8 0 24 0 0 48-24 0-80 0-24 0 0-48 24 0zm72-208l0 64-64 0 0-64 64 0z"/></svg>

<svg xmlns="http://www.w3.org/2000/svg" viewBox="0 0 448 512"><!--! Font Awesome Pro 6.4.2 by @fontawesome - https://fontawesome.com License - https://fontawesome.com/license (Commercial License) Copyright 2023 Fonticons, Inc. --><path d="M448 32H0V480H448V32zM184 336h24V272H184 160V224h24 48 24v24 88h8 24v48H264 184 160V336h24zm72-208v64H192V128h64z"/></svg>
